packages/styles/assets/img/flags/ME.svg

<svg width="24" height="16" viewBox="0 0 24 16" fill="none" xmlns="http://www.w3.org/2000/svg">
    <g clip-path="url(#clip0_13761_68368)">
        <path d="M24 -0.00256348H0V15.9949H24V-0.00256348Z" fill="#FFDA44" />
        <path d="M22.605 1.39246H1.39502V14.6H22.605V1.39246Z" fill="#A2001D" />
        <path
            d="M10.2603 5.91496H13.7403V4.51996L13.0428 4.87246L12.0003 3.82996L10.9578 4.87246L10.2603 4.51996V5.91496Z"
            fill="#FFDA44"
        />
        <path
            d="M15.1276 8.00001H13.3951C13.4641 7.87737 13.5001 7.73885 13.4993 7.59809C13.4986 7.45733 13.4611 7.31921 13.3907 7.19732C13.3203 7.07543 13.2194 6.974 13.0978 6.90302C12.9763 6.83203 12.8383 6.79395 12.6976 6.79251C12.5503 6.79667 12.4071 6.84165 12.284 6.92244C12.1608 7.00322 12.0625 7.11663 12.0001 7.25001C11.9601 7.14271 11.8977 7.04519 11.817 6.96401C11.7362 6.88283 11.639 6.81987 11.532 6.77935C11.4249 6.73883 11.3103 6.7217 11.1961 6.72909C11.0818 6.73649 10.9705 6.76826 10.8695 6.82225C10.7686 6.87624 10.6803 6.95121 10.6107 7.04213C10.5411 7.13304 10.4918 7.2378 10.466 7.34936C10.4403 7.46092 10.4387 7.5767 10.4614 7.68892C10.4841 7.80115 10.5305 7.90722 10.5976 8.00001H8.87256C8.87846 8.25797 8.9856 8.50326 9.17084 8.68288C9.35608 8.86251 9.60454 8.96205 9.86256 8.96002C9.85759 9.16144 9.91662 9.35926 10.0312 9.52502C10.1457 9.69078 10.3099 9.81594 10.5001 9.88251L9.75006 10.6325L10.5001 11.3825L11.5501 10.3325L11.6701 10.37L11.0401 11.8025C11.6712 12.0523 12.3739 12.0523 13.0051 11.8025L12.3751 10.37L12.5026 10.3325L13.5001 11.405L14.2501 10.655L13.5001 9.90502C13.7 9.84769 13.8757 9.72648 14.0003 9.5599C14.1249 9.39332 14.1916 9.19053 14.1901 8.98251C14.4428 8.97093 14.6812 8.86232 14.8559 8.67931C15.0305 8.49629 15.1278 8.25298 15.1276 8.00001Z"
            fill="#FFDA44"
        />
        <path
            d="M12.0002 8.52496L10.8677 9.04246V10.085L12.0002 10.7825L13.1327 10.085V9.04246L12.0002 8.52496Z"
            fill="#6DA544"
        />
        <path d="M13.1252 8H10.8677V9.395H13.1252V8Z" fill="#0052B4" />
    </g>
    <defs>
        <clipPath id="clip0_13761_68368">
            <rect width="24" height="16" fill="white" />
        </clipPath>
    </defs>
</svg>

<svg xmlns="http://www.w3.org/2000/svg" width="24" height="16" fill="none" viewBox="0 0 24 16">
    <g clip-path="url(#clip0)">
        <path fill="#FFDA44" d="M24-.003H0v15.998h24V-.003z" />
        <path fill="#A2001D" d="M24 1.393H0v13.215h24V1.393z" />
        <path
            fill="#FFDA44"
            d="M10.26 5.915h3.48V4.52l-.697.353L12 3.83l-1.042 1.043-.698-.353v1.395zM15.128 8h-1.733a.81.81 0 00-.697-1.207.795.795 0 00-.698.457.804.804 0 00-1.534.1.803.803 0 00.132.65H8.873a.982.982 0 00.99.96.952.952 0 00.637.923l-.75.75.75.75 1.05-1.05.12.037-.63 1.433a2.67 2.67 0 001.965 0l-.63-1.433.128-.037.997 1.072.75-.75-.75-.75a.953.953 0 00.69-.922.983.983 0 00.938-.983z"
        />
        <path fill="#6DA544" d="M12 8.525l-1.133.518v1.042l1.133.697 1.132-.697V9.043L12 8.525z" />
        <path fill="#0052B4" d="M13.125 8h-2.258v1.395h2.258V8z" />
    </g>
    <defs>
        <clipPath id="clip0">
            <path fill="#fff" d="M0 0h24v16H0z" />
        </clipPath>
    </defs>
</svg>
